icons/intravenous_bag.svg

<svg width="48" height="48" viewBox="0 0 48 48" fill="none" xmlns="http://www.w3.org/2000/svg">
<path d="M24 11.9522C25.1046 11.9522 26 11.0568 26 9.95219C26 8.84762 25.1046 7.95219 24 7.95219C22.8954 7.95219 22 8.84762 22 9.95219C22 11.0568 22.8954 11.9522 24 11.9522Z" fill="black"/>
<path fill-rule="evenodd" clip-rule="evenodd" d="M13.9915 38L15 38V40H17.0006C17.026 41.0825 17.9114 41.9522 19 41.9522H21C22.0886 41.9522 22.974 41.0825 22.9994 40H26.9912V44H28.9912V40H33V38L33.9915 38C36.2006 38 37.9915 36.2092 37.9915 34.0001V10.1143C37.9915 7.90519 36.2006 6.11433 33.9915 6.11433H27.9915L26.8594 4.94997C25.2887 3.33439 22.6942 3.33439 21.1235 4.94997L19.9915 6.11433H13.9915C11.7823 6.11433 9.99146 7.90519 9.99146 10.1143V34C9.99146 36.2092 11.7823 38 13.9915 38ZM27.9915 8.11433C27.4513 8.11433 26.934 7.89581 26.5575 7.50849L25.4254 6.34413C24.6401 5.53633 23.3428 5.53633 22.5575 6.34412L21.4254 7.50849C21.0489 7.89581 20.5317 8.11433 19.9915 8.11433H13.9915C12.8869 8.11433 11.9915 9.00976 11.9915 10.1143V28.971C13.2932 28.9499 14.524 28.9876 15.6919 29.0306C15.8704 29.0372 16.047 29.0439 16.2221 29.0506C16.5429 29.0627 16.8588 29.0746 17.1697 29.0853C18.1026 29.1174 18.9952 29.1383 19.8733 29.1196C22.5004 29.0637 24.9154 28.6538 27.4833 27.1388C30.602 25.2988 33.2415 25.8514 35.0663 26.9133C35.405 27.1104 35.7137 27.3235 35.9915 27.5389V23.4522H32V21.4522H35.9915V18.4522H32V16.4522H35.9915V13.4522H32V11.4522H35.9915V10.1143C35.9915 9.00976 35.096 8.11433 33.9915 8.11433H27.9915ZM13.9915 36C12.8869 36 11.9915 35.1046 11.9915 34V30.9713C13.2463 30.9499 14.4454 30.986 15.6182 31.0293C15.7938 31.0358 15.9692 31.0424 16.1443 31.0491C17.4207 31.0975 18.6814 31.1454 19.9158 31.1191C22.7574 31.0587 25.5425 30.606 28.4996 28.8613C30.9059 27.4416 32.7664 27.8889 34.0604 28.6419C34.7321 29.0329 35.2642 29.5177 35.6306 29.9109C35.7828 30.0742 35.9037 30.2187 35.9915 30.3296V34.0001C35.9915 35.1046 35.096 36 33.9915 36H13.9915Z" fill="black"/>
</svg>

<svg
  xmlns="http://www.w3.org/2000/svg"
  width="24"
  height="24"
  viewBox="0 0 24 24"
  fill="none"
  stroke="currentColor"
  stroke-width="2"
  stroke-linecap="round"
  stroke-linejoin="round"
>
  <path d="M24 11.952a2 2 0 1 0 0-4 2 2 0 0 0 0 4" />
  <path
    fill-rule="evenodd"
    d="M13.992 38H15v2h2a2 2 0 0 0 2 1.952h2A2 2 0 0 0 23 40h3.991v4h2v-4H33v-2h.992a4 4 0 0 0 4-4V10.114a4 4 0 0 0-4-4h-6L26.859 4.95a4 4 0 0 0-5.736 0l-1.132 1.164h-6a4 4 0 0 0-4 4V34a4 4 0 0 0 4 4m14-29.886a2 2 0 0 1-1.434-.606l-1.133-1.164a2 2 0 0 0-2.867 0l-1.133 1.164a2 2 0 0 1-1.434.606h-6a2 2 0 0 0-2 2v18.857a69 69 0 0 1 3.7.06l.531.02q.48.018.948.034c.933.032 1.825.053 2.703.035 2.627-.056 5.042-.466 7.61-1.981 3.119-1.84 5.759-1.288 7.583-.226.339.197.648.41.925.626v-4.087H32v-2h3.992v-3H32v-2h3.992v-3H32v-2h3.992v-1.338a2 2 0 0 0-2-2zM13.991 36a2 2 0 0 1-2-2v-3.029a66 66 0 0 1 3.626.058l.526.02c1.277.049 2.537.096 3.772.07 2.841-.06 5.627-.513 8.584-2.258 2.406-1.42 4.266-.972 5.56-.22a7 7 0 0 1 1.931 1.689V34a2 2 0 0 1-2 2z"
    clip-rule="evenodd"
  />
</svg>
